X: 4953
T: Breem Dog, The
R: reel
M: 4/4
K: Dmajor
A|d/d/d (Ad) fedc|BAGF EDCE|1 D/D/D DF DEFG|AFGE FDD:|2 D/D/D (dA) BGdB|AFGE FDDA||
d/d/d (A=c) BGG^d|e/e/e (B=d) cAAc|dDd=c B^cdB|AFGE FDDA|
dAFA BGG^d|eB^Ge cAA=g|fage dBAG|FAGE FDD||

